findly-builder/apps/searchassist/src/assets/icons/list-view.svg

<svg width="20" height="20" viewBox="0 0 20 20" fill="none" xmlns="http://www.w3.org/2000/svg">
<rect width="20" height="20" fill="#D8D8D8" fill-opacity="0.01"/>
<path fill-rule="evenodd" clip-rule="evenodd" d="M4.58301 5.4165C5.27336 5.4165 5.83301 4.85686 5.83301 4.1665C5.83301 3.47615 5.27336 2.9165 4.58301 2.9165C3.89265 2.9165 3.33301 3.47615 3.33301 4.1665C3.33301 4.85686 3.89265 5.4165 4.58301 5.4165ZM17.7497 4.1665C17.7497 3.79831 17.4512 3.49984 17.083 3.49984H8.33301L8.27233 3.50256C7.93258 3.53322 7.66634 3.81877 7.66634 4.1665C7.66634 4.53469 7.96482 4.83317 8.33301 4.83317H17.083L17.1437 4.83045C17.4834 4.79979 17.7497 4.51424 17.7497 4.1665ZM17.7497 9.99984C17.7497 9.63165 17.4512 9.33317 17.083 9.33317H8.33301L8.27233 9.3359C7.93258 9.36655 7.66634 9.6521 7.66634 9.99984C7.66634 10.368 7.96482 10.6665 8.33301 10.6665H17.083L17.1437 10.6638C17.4834 10.6331 17.7497 10.3476 17.7497 9.99984ZM17.083 15.1665C17.4512 15.1665 17.7497 15.465 17.7497 15.8332C17.7497 16.1809 17.4834 16.4665 17.1437 16.4971L17.083 16.4998H8.33301C7.96482 16.4998 7.66634 16.2014 7.66634 15.8332C7.66634 15.4854 7.93258 15.1999 8.27233 15.1692L8.33301 15.1665H17.083ZM5.83301 9.99984C5.83301 10.6902 5.27336 11.2498 4.58301 11.2498C3.89265 11.2498 3.33301 10.6902 3.33301 9.99984C3.33301 9.30948 3.89265 8.74984 4.58301 8.74984C5.27336 8.74984 5.83301 9.30948 5.83301 9.99984ZM4.58301 17.0832C5.27336 17.0832 5.83301 16.5235 5.83301 15.8332C5.83301 15.1428 5.27336 14.5832 4.58301 14.5832C3.89265 14.5832 3.33301 15.1428 3.33301 15.8332C3.33301 16.5235 3.89265 17.0832 4.58301 17.0832Z" fill="#26344A"/>
</svg>

<svg width="20" height="20" fill="none" xmlns="http://www.w3.org/2000/svg"><path fill="#D8D8D8" fill-opacity=".01" d="M0 0h20v20H0z"/><path fill-rule="evenodd" clip-rule="evenodd" d="M4.583 5.417a1.25 1.25 0 1 0 0-2.5 1.25 1.25 0 0 0 0 2.5Zm13.167-1.25a.667.667 0 0 0-.667-.667h-8.75l-.06.003a.667.667 0 0 0 .06 1.33h8.75l.06-.003a.667.667 0 0 0 .607-.663Zm0 5.833a.667.667 0 0 0-.667-.667h-8.75l-.06.003a.667.667 0 0 0 .06 1.33h8.75l.06-.002A.667.667 0 0 0 17.75 10Zm-.667 5.166a.667.667 0 0 1 .06 1.331l-.06.003h-8.75a.667.667 0 0 1-.06-1.33l.06-.004h8.75ZM5.833 10a1.25 1.25 0 1 1-2.5 0 1.25 1.25 0 0 1 2.5 0Zm-1.25 7.083a1.25 1.25 0 1 0 0-2.5 1.25 1.25 0 0 0 0 2.5Z" fill="#26344A"/></svg>
